**kern	**kern	**dynam
*part1	*part1	*part1
*staff2	*staff1	*
*I"Piano	*	*
*clefG2	*clefG2	*
*k[b-e-a-]	*k[b-e-a-]	*
=1	=1	=1
8c'L 8e- 8g 8an	8ee-'	.
8c'J 8e- 8g 8a	8r	.
.	(8qgg#X/	.
8r	8aan')	.
=	=	=
8d'L 8f#X 8an	8dd'	.
8d'J 8f# 8a	8r	.
8r	8r	.
*clefF4	*	*
=	=	=
!	!LO:TX:b:i:t=colla voce	!LO:DY:a
(4.BB-	4.G 4.d [4.g	mf
=	=	=
!	!LO:TX:a:i:t=dim.	!
4.AAn	[4.c 4.e- 4.g]	.
=	=	=
4.D	4.c] [4.d 4.f#X	.
=	=	=
(16GLL)	8B- 8d] 8g	pp
16B-	.	.
16d	8r	.
16g	.	.
.	(8qff#X/	.
16d	8gg')	.
16B-JJ)	.	.
=	=	=
(16GLL	8b-'	.
16B-	.	.
16d	8r	.
16g	.	.
.	(8qff#X/	.
16d	8gg')	.
16B-JJ)	.	.
=	=	=
*-	*-	*-
!!!system-decoration: {(s1,s2)}
